icons/outline/virus-off.svg

<!--
category: Health
tags: [infection, illness, cell, infectious, health]
version: "1.31"
unicode: "ed66"
-->
<svg
  xmlns="http://www.w3.org/2000/svg"
  width="24"
  height="24"
  viewBox="0 0 24 24"
  fill="none"
  stroke="currentColor"
  stroke-width="2"
  stroke-linecap="round"
  stroke-linejoin="round"
>
  <path d="M3 3l18 18m-12.531 -12.54a5 5 0 0 0 7.058 7.084m1.386 -2.608a5 5 0 0 0 -5.826 -5.853m.913 -.083v-4m-1 0h2m2.536 5.464l2.828 -2.828m-.707 -.707l1.414 1.414m-2.071 5.657h4m0 -1v2m-2.636 5.363l-.707 .707m-5.657 -2.07v4m1 0h-2m-2.535 -5.464l-2.829 2.828m.707 .707l-1.413 -1.414m2.07 -5.657h-4m0 1v-2m2.636 -5.363l-.707 .707" />
</svg>

<!--
category: Health
tags: [infection, illness, cell, infectious, health]
version: "1.31"
unicode: "ed66"
-->
<svg
  xmlns="http://www.w3.org/2000/svg"
  width="24"
  height="24"
  viewBox="0 0 24 24"
  fill="none"
  stroke="currentColor"
  stroke-width="2"
  stroke-linecap="round"
  stroke-linejoin="round"
>
    <path d="M3 3l18 18M8.469 8.46a5 5 0 0 0 7.058 7.084M16.913 12.936a5 5 0 0 0 -5.826 -5.853M12 7v-4M11 3h2M15.536 8.464l2.828 -2.828M17.657 4.929l1.414 1.414M17 12h4M21 11v2M18.364 18.363l-.707 .707M12 17v4M13 21h-2M8.465 15.536l-2.829 2.828M6.343 19.071l-1.413 -1.414M7 12h-4M3 13v-2M5.636 5.637l-.707 .707" />
</svg>
